X:1
T:Title
%%score { 1 | 2 }
L:1/8
M:6/8
K:G
V:1 treble nm="Grand Piano"
V:2 bass 
V:1
 z3 z2[Q:1/4=90] D | GGG GAB | [FA]3 G2 B | [FA][FA][FA] [FA][GB][Ac] | B3- B2 B | %5
 ddd [DBd][DAc][DGB] | [CEA]3 [G,CE]2 [CEG] | [A,DF][A,DF][A,DF] [A,DF][B,DG][CDA] | %8
[M:5/8] [B,DG]-[B,DG]- [B,DG]3 |[M:1/8] [DGB] |[M:3/4] [FA][FA] [FA][FA] [GB][Ac] | B3 d2 B | %12
 AA A[EG] [DF][^CE] | D4- DD | GG GG AB |[M:7/8] [Ec]3 [Ge]3 [Ge] | %16
[M:3/4] [Gd][EGc] [DGB][CEA] [B,DG][A,DF] |[M:5/8] [B,DG]-[B,DG]- [B,DG]3 |] %18
V:2
 z3 z2 [G,B,] | [G,B,D][G,B,D][G,B,D] [G,B,][K:treble][G,CG][G,DG] | [D,C]3 [G,B,]2 [G,DG] | %3
 [D,D][D,D][D,D] [D,D][D,D][D,D] | [G,DG]3- [G,DG]2 [G,DG] | %5
 [G,B,G][G,B,G][G,B,G][K:bass] G,,A,,B,, | C,3 C,2 C, | D,D,D, D,D,D, |[M:5/8] G,,-G,,- G,,3 | %9
[M:1/8] G, |[M:3/4] [D,D][D,D] [D,D][D,D] [D,D][D,D] | [G,DG]3 [G,B,G]2 [G,DG] | %12
 [A,DF][A,DF] [A,DF][K:bass][A,,A,] [A,,A,][A,,G,] | [D,F,]4- [D,F,][D,A,C] | %14
 [G,B,][G,B,] [G,B,][B,,G,B,] [B,,G,C][G,D] |[M:7/8] [C,G,]3 [C,C]3 [C,C] | %16
[M:3/4] [G,B,]G, G,C, D,D, |[M:5/8] G,,-G,,- G,,3 |] %18

